!!!OTL-incipit: HOLZAPFELBAEUMCHEN, WIE SAUER IST DER WEIN
!!!ARE: Europa, Mitteleuropa, Deutschland, Rheinbayern
!!!SCT: Z0127
!!!TXL: @@DE
!!!YEM: Copyright 1995, estate of Helmut Schaffrath.
**kern	**text
*ICvox	*
*M2/4	*
*k[f#]	*
*G:	*
=1	=1
!LO:TX:a:t=I. Theil.	!
!LO:TX:a:t=Rheinbaiern.	!
{4g	Holʒ-
8b/	-ap-
8g	-fel
=2	=2
4dd	bäumchen,
8cc}	.
{8cc	wie
=3	=3
8b	ſau-
8b	-er
8a	iſt
8a	der
=4	=4
4g	Wein;
4r}	.
=5	=5
{4g	Holʒ-
8b/	-ap-
8g	-fel
=6	=6
4dd	bäumchen,
8cc}	.
{8cc	wie
=7	=7
8b	ſau-
8b	-er
8a	iſt
8a	der
=8	=8
4g	Wein;
4r}	.
=9	=9
{8g	komm
8g	ich
8b/	ʒu
8g	mein
=10	=10
4dd	Schätʒel,
8cc}	.
{8cc	wie
=11	=11
4b	froh
8a	will
8a	ich
=12	=12
4g	ſeyn.
4r}	.
==	==
!!!AGN: Erzaehlung, lustige Romanze
!!!ONB: ESAC (Essen Associative Code) Database: ZUCCAL
!!!AMT: simple duple
!!!AIN: vox
!!!EED: Helmut Schaffrath
!!!EEV: 1.0
!!!GTL: II. Erzahlungen, lustige Romanzen, Kinder-Lieder und episch-lyrische Volks-Lieder.
!!!URL-scan: https://www.digitale-sammlungen.de/de/view/bsb11160571?page=240
!!!ENC: Anna Maria Matuszewska
!!!EEV: 2025/01/27
*-	*-
